img/delete_table.svg

<svg xmlns="http://www.w3.org/2000/svg" width="24" height="24" viewBox="0 0 24 24">
  <path d="M19,14 C21.7600532,14.0033061 23.9966939,16.2399468 24,19 C24,21.7614237 21.7614237,24 19,24 C16.2385763,24 14,21.7614237 14,19 C14,16.2385763 16.2385763,14 19,14 Z M16.5,19.9375 L21.5,19.9375 C22.017767,19.9375 22.4375,19.517767 22.4375,19 C22.4375,18.482233 22.017767,18.0625 21.5,18.0625 L16.5,18.0625 C15.982233,18.0625 15.5625,18.482233 15.5625,19 C15.5625,19.517767 15.982233,19.9375 16.5,19.9375 Z M12.2898787,17 L9,17 L9,22 L12.6736312,22 C13.0297295,22.7496048 13.515133,23.4258795 14.1010173,24 L5,24 C2.23857625,24 -1.43817996e-15,21.7614237 -1.77635684e-15,19 L-3.55271368e-15,5 C-3.89089055e-15,2.23857625 2.23857625,5.07265313e-16 5,-1.77635684e-15 L19,-1.77635684e-15 C21.7614237,-2.28362215e-15 24,2.23857625 24,5 L24,7.82313285 C24.0122947,7.88054124 24.0187107,7.93964623 24.0187107,8 C24.0187107,8.06035377 24.0122947,8.11945876 24,8.17686715 L24,14.1010173 C23.4258795,13.515133 22.7496048,13.0297295 22,12.6736312 L22,9 L17,9 L17,12.2898787 C16.2775651,12.5048858 15.6040072,12.8333806 15,13.2546893 L15,9 L9,9 L9,15 L13.2546893,15 C12.8333806,15.6040072 12.5048858,16.2775651 12.2898787,17 Z M17,7 L22,7 L22,5 C22,3.34314575 20.6568542,2 19,2 L17,2 L17,7 Z M15,7 L15,2 L9,2 L9,7 L15,7 Z M7,2 L5,2 C3.34314575,2 2,3.34314575 2,5 L2,7 L7,7 L7,2 Z M2,9 L2,15 L7,15 L7,9 L2,9 Z M2,17 L2,19 C2,20.6568542 3.34314575,22 5,22 L7,22 L7,17 L2,17 Z"/>
</svg>

<svg width="24" height="24" viewBox="0 0 24 24" xmlns="http://www.w3.org/2000/svg"><path d="m19 14c2.7601 0.0033061 4.9967 2.2399 5 5 0 2.7614-2.2386 5-5 5s-5-2.2386-5-5 2.2386-5 5-5zm-2.5 5.9375h5c0.51777 0 0.9375-0.41973 0.9375-0.9375s-0.41973-0.9375-0.9375-0.9375h-5c-0.51777 0-0.9375 0.41973-0.9375 0.9375s0.41973 0.9375 0.9375 0.9375zm-4.2101-2.9375h-3.2899v5h3.6736c0.3561 0.7496 0.8415 1.4259 1.4274 2h-9.101c-2.7614 0-5-2.2386-5-5l-1.7764e-15 -14c-3.3818e-16 -2.7614 2.2386-5 5-5h14c2.7614-5.0727e-16 5 2.2386 5 5v2.8231c0.012295 0.057408 0.018711 0.11651 0.018711 0.17687s-0.006416 0.11946-0.018711 0.17687v5.9242c-0.57412-0.58588-1.2504-1.0713-2-1.4274v-3.6736h-5v3.2899c-0.72243 0.21501-1.396 0.5435-2 0.96481v-4.2547h-6v6h4.2547c-0.42131 0.60401-0.7498 1.2776-0.96481 2zm4.7101-10h5v-2c0-1.6569-1.3431-3-3-3h-2v5zm-2 0v-5h-6v5h6zm-8-5h-2c-1.6569 0-3 1.3431-3 3v2h5v-5zm-5 7v6h5v-6h-5zm0 8v2c0 1.6569 1.3431 3 3 3h2v-5h-5z"/></svg>
